resources/svg/volume-1.svg

<svg xmlns="http://www.w3.org/2000/svg" viewBox="0 0 15 15" fill="currentColor"><path d="M9 1.5C9 1.31989 8.90313 1.1537 8.74641 1.06494C8.58969 0.976173 8.39735 0.978558 8.24288 1.07118L3.36159 3.99804H1.5C0.672491 3.99804 0 4.66798 0 5.49739V9.49479C0 10.3242 0.672491 10.9941 1.5 10.9941H3.36159L8.24288 13.921C8.39735 14.0136 8.58969 14.016 8.74641 13.9272C8.90313 13.8385 9 13.6723 9 13.4922V1.5Z" fill="black"/><path d="M10 6V9H11V6H10Z" fill="black"/></svg>

<svg xmlns="http://www.w3.org/2000/svg" viewBox="0 0 15 15" fill="currentColor"><path d="M9 1.5a.5.5 0 00-.757-.429L3.362 3.998H1.5a1.5 1.5 0 00-1.5 1.5v3.997c0 .83.672 1.5 1.5 1.5h1.862l4.88 2.926A.5.5 0 009 13.492V1.5zM10 6v3h1V6h-1z" fill="currentColor"/></svg>
